src/resources/assets/chat.svg

<svg xmlns="http://www.w3.org/2000/svg" width="16" height="16"><g fill="#ddd"><path d="M 6 7 C 6 6.722656 6.222656 6.5 6.5 6.5 L 9.5 6.5 C 9.777344 6.5 10 6.722656 10 7 C 10 7.277344 9.777344 7.5 9.5 7.5 L 6.5 7.5 C 6.222656 7.5 6 7.277344 6 7 Z M 6.5 8.5 C 6.222656 8.5 6 8.722656 6 9 C 6 9.277344 6.222656 9.5 6.5 9.5 L 8.5 9.5 C 8.777344 9.5 9 9.277344 9 9 C 9 8.722656 8.777344 8.5 8.5 8.5 Z M 6.5 8.5"/><path d="M 2 8 C 2 4.6875 4.6875 2 8 2 C 11.3125 2 14 4.6875 14 8 C 14 11.3125 11.3125 14 8 14 C 6.90625 14 5.878906 13.707031 4.996094 13.195312 L 2.65625 13.972656 C 2.480469 14.03125 2.289062 13.988281 2.152344 13.859375 C 2.019531 13.734375 1.96875 13.539062 2.019531 13.363281 L 2.730469 10.871094 C 2.265625 10.019531 2 9.039062 2 8 Z M 8 3 C 5.238281 3 3 5.238281 3 8 C 3 8.933594 3.253906 9.804688 3.699219 10.550781 C 3.769531 10.671875 3.789062 10.8125 3.75 10.945312 L 3.242188 12.726562 L 4.898438 12.171875 C 5.042969 12.125 5.199219 12.144531 5.324219 12.226562 C 6.097656 12.714844 7.015625 13 8 13 C 10.761719 13 13 10.761719 13 8 C 13 5.238281 10.761719 3 8 3 Z M 8 3"/></g></svg>

<svg xmlns="http://www.w3.org/2000/svg" width="16" height="16"><g fill="#ddd"><path d="M6 7c0-.277.223-.5.5-.5h3c.277 0 .5.223.5.5s-.223.5-.5.5h-3A.498.498 0 016 7zm.5 1.5c-.277 0-.5.223-.5.5s.223.5.5.5h2c.277 0 .5-.223.5-.5s-.223-.5-.5-.5zm0 0"/><path d="M2 8c0-3.313 2.688-6 6-6 3.313 0 6 2.688 6 6a6.002 6.002 0 01-9.004 5.195l-2.34.778a.5.5 0 01-.504-.114c-.132-.125-.183-.32-.132-.496l.71-2.492A5.981 5.981 0 012 8zm6-5a5 5 0 00-4.3 7.55.5.5 0 01.05.395l-.508 1.782 1.656-.555a.496.496 0 01.426.055A4.998 4.998 0 008 13 5 5 0 108 3zm0 0"/></g></svg>
